projects/vfh1/img/icons-service/hair-dryer.svg

<svg viewBox="0 0 33 28" fill="none" xmlns="http://www.w3.org/2000/svg">
<path d="M14.7455 13.8944H16.7035C19.6116 13.6858 22.4415 12.8385 25 11.4105V5.61189C22.3534 4.06898 17.865 3.06863 13.6006 3.00081C12.1507 2.97566 10.7496 3.53565 9.70121 4.5593C8.65282 5.58295 8.0417 6.98771 8.00041 8.46882C7.9887 9.42776 8.22632 10.3727 8.68902 11.2071C9.51821 12.7881 9.93804 14.5594 9.90861 16.3529V19.3794C9.90861 20.1085 10.1907 20.3967 10.5474 20.3967H10.8959V23.9149C10.8598 24.0412 10.8531 24.1744 10.8761 24.3039C10.8991 24.4334 10.9514 24.5556 11.0286 24.6609C11.1059 24.7662 11.2061 24.8516 11.3213 24.9105C11.4365 24.9694 11.5636 25 11.6924 25C11.8212 25 11.9482 24.9694 12.0634 24.9105C12.1786 24.8516 12.2788 24.7662 12.3561 24.6609C12.4334 24.5556 12.4856 24.4334 12.5086 24.3039C12.5317 24.1744 12.5249 24.0412 12.4888 23.9149V20.4306H16.8445C16.9437 20.4372 17.0426 20.4148 17.1298 20.366C17.217 20.3172 17.2887 20.244 17.3366 20.155C17.3845 20.0661 17.4065 19.965 17.4002 19.8636C17.3939 19.7623 17.3594 19.6649 17.3008 19.5829L16.2721 17.8195C16.2224 17.7351 16.1965 17.6383 16.1974 17.5398V15.2424H14.7455C14.6527 15.253 14.5587 15.2435 14.4697 15.2145C14.3807 15.1855 14.2987 15.1376 14.229 15.074C14.1594 15.0104 14.1037 14.9325 14.0655 14.8454C14.0274 14.7582 14.0077 14.6639 14.0077 14.5684C14.0077 14.473 14.0274 14.3786 14.0655 14.2914C14.1037 14.2043 14.1594 14.1264 14.229 14.0628C14.2987 13.9992 14.3807 13.9513 14.4697 13.9223C14.5587 13.8933 14.6527 13.8838 14.7455 13.8944ZM12.7543 9.57937C12.385 9.581 12.0236 9.47015 11.7162 9.26097C11.4088 9.0518 11.1694 8.75379 11.0285 8.40497C10.8876 8.05614 10.8516 7.67232 10.9251 7.3025C10.9986 6.93267 11.1782 6.59362 11.4412 6.32859C11.7041 6.06357 12.0383 5.88458 12.4012 5.81449C12.7641 5.7444 13.1392 5.7864 13.4786 5.93509C13.818 6.08379 14.1064 6.33245 14.3069 6.64935C14.5075 6.96625 14.611 7.337 14.6044 7.71432C14.5958 8.21059 14.3973 8.68367 14.0515 9.03226C13.7057 9.38085 13.2401 9.57723 12.7543 9.57937Z" fill="#42474D"/>
</svg>

<svg viewBox="0 0 33 28" fill="none" xmlns="http://www.w3.org/2000/svg"><path d="M14.745 13.894h1.958A19.948 19.948 0 0025 11.411v-5.8c-2.647-1.542-7.135-2.542-11.4-2.61a5.445 5.445 0 00-3.899 1.558 5.686 5.686 0 00-1.7 3.91 5.51 5.51 0 00.688 2.738 10.706 10.706 0 011.22 5.146v3.026c0 .73.282 1.018.638 1.018h.349v3.518a.866.866 0 00.133.746.835.835 0 00.663.339.815.815 0 00.664-.34.856.856 0 00.133-.745V20.43h4.355a.514.514 0 00.493-.276.544.544 0 00-.036-.572l-1.029-1.763a.542.542 0 01-.075-.28v-2.298h-1.451a.651.651 0 01-.517-.168.679.679 0 01-.221-.506.692.692 0 01.221-.505.661.661 0 01.517-.169zm-1.99-4.315a1.83 1.83 0 01-1.039-.318 1.89 1.89 0 01-.688-.856 1.938 1.938 0 01-.103-1.102 1.91 1.91 0 01.516-.974 1.822 1.822 0 012.037-.394c.34.149.628.397.829.714a1.929 1.929 0 01-.255 2.383 1.838 1.838 0 01-1.298.547z" fill="#42474D"/></svg>
